loleaflet/images/lc_datafilterhideautofilter.svg

<svg viewBox="0 0 24 24" xmlns="http://www.w3.org/2000/svg"><path d="m4.71875 2.5058594-1.2128906 1.1855468v1.1875.3613282l5.9941406 8.3828126v4.310547.046875l2.878906 2.02539 1.003906-2.005859h-.382812a1.0001 1.0001 0 0 1 -.78125-1.625l2.964844-3.699219 5.310547-7.4355466v-1.5488282l-1.212891-1.1855468z" fill="#fafafa"/><path d="m17.004237 12h5.995763l-4 4h2l-9 7 3-6h-2z" fill="#3a3a38" fill-rule="evenodd"/><path d="m4.71875 2a.50535904.50535904 0 0 0 -.3535156.1445312l-1.2128906 1.1855469a.50535904.50535904 0 0 0 -.1523438.3613281v1.1875.3613282a.50535904.50535904 0 0 0 .09375.2949218l.3867188.5390626.8789062-.5078126-.3496094-.4882812v-.1992188-.9746093l.9160156-.8945313h.8789063v-1.0097656zm2.0859375 0v1.0097656h1.8476563v-1.0097656zm2.8476563 0v1.0097656h1.8476562v-1.0097656zm2.8476562 0v1.0097656h1.847656v-1.0097656zm2.847656 0v1.0097656h1.847656v-1.0097656zm2.847656 0v1.0097656h.878907l.916015.8945313v1.1738281l-5.894531 8.25a.50535904.50535904 0 0 0 -.095703.294922v.529297l2.224609-2.777344a1.0001 1.0001 0 0 1 .777344-.375l3.904297-5.4648438a.50535904.50535904 0 0 0 .09375-.2949218v-1.5488282a.50535904.50535904 0 0 0 -.152344-.3613281l-1.21289-1.1855469a.50535904.50535904 0 0 0 -.353516-.1445312zm-13.2499995 4.3847656-.8808594.5078125 1.0800781 1.5097657.8808594-.5078126zm1.6640625 2.3261719-.8808594.5078125 3.265625 4.566406v4.148438.046875a.50535904.50535904 0 0 0 .2148438.414062l2.9414066 2.070313.457031-.916016-2.601563-1.830078v-4.095703a.50535904.50535904 0 0 0 -.0957028-.294922zm8.402344 10.5019535-.146485.292968.146485-.113281z" fill="#3a3a38"/><g fill="#fafafa" stroke-linecap="round" stroke-linejoin="bevel" stroke-width="2" transform="matrix(.5 .8660254 -.8660254 .5 0 0)"><path d="m12.696331-2.660866h1v10h-1z"/><path d="m15.543789-2.660866h1v10h-1z"/><path d="m18.391247-2.660866h1v10h-1z"/></g><path d="m17.484375 13-2.40625 3.003906a1.0001 1.0001 0 0 1 .816406 1.44336l-1.029297 2.058593 3.507813-2.728515a1.0001 1.0001 0 0 1 -.08008-1.484375l2.292971-2.292969z" fill="#797774" fill-rule="evenodd"/></svg>

<?xml version="1.0" encoding="UTF-8" standalone="no"?>
<svg
   xmlns:dc="http://purl.org/dc/elements/1.1/"
   xmlns:cc="http://creativecommons.org/ns#"
   xmlns:rdf="http://www.w3.org/1999/02/22-rdf-syntax-ns#"
   xmlns:svg="http://www.w3.org/2000/svg"
   xmlns="http://www.w3.org/2000/svg"
   xmlns:sodipodi="http://sodipodi.sourceforge.net/DTD/sodipodi-0.dtd"
   xmlns:inkscape="http://www.inkscape.org/namespaces/inkscape"
   viewBox="0 0 24 24"
   version="1.1"
   id="svg8"
   sodipodi:docname="lc_datafilterhideautofilter.svg"
   inkscape:version="0.92.5 (2060ec1f9f, 2020-04-08)">
  <metadata
     id="metadata14">
    <rdf:RDF>
      <cc:Work
         rdf:about="">
        <dc:format>image/svg+xml</dc:format>
        <dc:type
           rdf:resource="http://purl.org/dc/dcmitype/StillImage" />
        <dc:title />
      </cc:Work>
    </rdf:RDF>
  </metadata>
  <defs
     id="defs12" />
  <sodipodi:namedview
     pagecolor="#ffffff"
     bordercolor="#666666"
     borderopacity="1"
     objecttolerance="10"
     gridtolerance="10"
     guidetolerance="10"
     inkscape:pageopacity="0"
     inkscape:pageshadow="2"
     inkscape:window-width="1366"
     inkscape:window-height="700"
     id="namedview10"
     showgrid="true"
     inkscape:snap-bbox="true"
     inkscape:bbox-paths="true"
     inkscape:bbox-nodes="true"
     inkscape:zoom="13.906433"
     inkscape:cx="13.902712"
     inkscape:cy="10.471531"
     inkscape:window-x="0"
     inkscape:window-y="0"
     inkscape:window-maximized="1"
     inkscape:current-layer="svg8">
    <inkscape:grid
       type="xygrid"
       id="grid817" />
  </sodipodi:namedview>
  <path
     d="m4.71875 2.5058594-1.2128906 1.1855468v1.1875.3613282l5.9941406 8.3828126v4.310547.046875l2.878906 2.02539 1.003906-2.005859h-.382812a1.0001 1.0001 0 0 1 -.78125-1.625l2.964844-3.699219 5.310547-7.4355466v-1.5488282l-1.212891-1.1855468z"
     fill="#fff"
     id="path2"
     style="fill:#fafafa" />
  <path
     d="m17.004237 12h5.995763l-4 4h2l-9 7 3-6h-2z"
     fill="#eac282"
     fill-rule="evenodd"
     id="path4"
     style="fill:#3a3a38;fill-opacity:1" />
  <path
     d="M 4.71875 2 A 0.50535904 0.50535904 0 0 0 4.3652344 2.1445312 L 3.1523438 3.3300781 A 0.50535904 0.50535904 0 0 0 3 3.6914062 L 3 4.8789062 L 3 5.2402344 A 0.50535904 0.50535904 0 0 0 3.09375 5.5351562 L 3.4804688 6.0742188 L 4.359375 5.5664062 L 4.0097656 5.078125 L 4.0097656 4.8789062 L 4.0097656 3.9042969 L 4.9257812 3.0097656 L 5.8046875 3.0097656 L 5.8046875 2 L 4.71875 2 z M 6.8046875 2 L 6.8046875 3.0097656 L 8.6523438 3.0097656 L 8.6523438 2 L 6.8046875 2 z M 9.6523438 2 L 9.6523438 3.0097656 L 11.5 3.0097656 L 11.5 2 L 9.6523438 2 z M 12.5 2 L 12.5 3.0097656 L 14.347656 3.0097656 L 14.347656 2 L 12.5 2 z M 15.347656 2 L 15.347656 3.0097656 L 17.195312 3.0097656 L 17.195312 2 L 15.347656 2 z M 18.195312 2 L 18.195312 3.0097656 L 19.074219 3.0097656 L 19.990234 3.9042969 L 19.990234 5.078125 L 14.095703 13.328125 A 0.50535904 0.50535904 0 0 0 14 13.623047 L 14 14.152344 L 16.224609 11.375 A 1.0001 1.0001 0 0 1 17.001953 11 L 20.90625 5.5351562 A 0.50535904 0.50535904 0 0 0 21 5.2402344 L 21 3.6914062 A 0.50535904 0.50535904 0 0 0 20.847656 3.3300781 L 19.634766 2.1445312 A 0.50535904 0.50535904 0 0 0 19.28125 2 L 18.195312 2 z M 4.9453125 6.3847656 L 4.0644531 6.8925781 L 5.1445312 8.4023438 L 6.0253906 7.8945312 L 4.9453125 6.3847656 z M 6.609375 8.7109375 L 5.7285156 9.21875 L 8.9941406 13.785156 L 8.9941406 17.933594 L 8.9941406 17.980469 A 0.50535904 0.50535904 0 0 0 9.2089844 18.394531 L 12.150391 20.464844 L 12.607422 19.548828 L 10.005859 17.71875 L 10.005859 13.623047 A 0.50535904 0.50535904 0 0 0 9.9101562 13.328125 L 6.609375 8.7109375 z M 15.011719 19.212891 L 14.865234 19.505859 L 15.011719 19.392578 L 15.011719 19.212891 z "
     id="path6"
     style="fill:#3a3a38;fill-opacity:1" />
  <rect
     y="-2.6608655"
     x="12.696331"
     height="10"
     width="1"
     id="rect937"
     style="fill:#fafafa;fill-opacity:1;stroke-width:2;stroke-linecap:round;stroke-linejoin:bevel;paint-order:stroke fill markers"
     transform="rotate(60)" />
  <rect
     y="-2.6608655"
     x="15.543789"
     height="10"
     width="1"
     id="rect939"
     style="fill:#fafafa;fill-opacity:1;stroke-width:2;stroke-linecap:round;stroke-linejoin:bevel;paint-order:stroke fill markers"
     transform="rotate(60)" />
  <rect
     style="fill:#fafafa;fill-opacity:1;stroke-width:2;stroke-linecap:round;stroke-linejoin:bevel;paint-order:stroke fill markers"
     id="rect941"
     width="1"
     height="10"
     x="18.391247"
     y="-2.6608655"
     transform="rotate(60)" />
  <path
     style="fill:#797774;fill-opacity:1;fill-rule:evenodd"
     d="m 17.484375,13 -2.40625,3.003906 a 1.0001,1.0001 0 0 1 0.816406,1.44336 l -1.029297,2.058593 3.507813,-2.728515 a 1.0001,1.0001 0 0 1 -0.08008,-1.484375 L 20.585938,13 Z"
     id="path819" />
</svg>
